X:122
T:Rossingal Waltz, The
S:John Moore's Book 2
Z:Transcribed by Edmund Spriggs 05/2021
%%VWML: Moore1-4494-p94-0
F:http://www.vwml.org/record/Moore2/4494/p94
M:3/8
N:The tune runs on to page 95.
N:The second strain has repeat marks at the beginning but not at the end.
N:The second strain has a segno above the bar lines at the end of the strain and DC below them.
N:The meaning of Da Capo at the end of the tune is unclear when the segno and DC
N:at the end of the second strain are considered.
N:"Pia" and "For", which are written above the third strain, may mean Piano and Forte.
L:1/8
K:C
((3g/a/g/)|c'z ((3g/a/g/)|ez ((3c/d/c/)|G2c|ez ((3g/a/g/)|
fz ((3d/e/d/)|Bz ((3G/A/G/)|c2e|gz ((3g/a/g/)|
c'z ((3g/a/g/)|ez ((3c/B/c/)|A2 c'|(b/a/g/)(f/e/d/)|
(ag) e/c/|gf d/B/|cc'c'|c'2:|
|:^F/G/|g2z|e2c|G2z|G ^F/G/A/G/|
c B/c/d/c/|e d/e/f/e/|g2z|=fz/ (G//A//) (B//c//d//e//)|
f2z|(f/e/d/)c/B/A/|G2z|(G/A/B/c/d/e/)|
f2g|b/a/g/f/e/d/|ecc|"_DC"c2S|]
CEG|ceg|c'ge|cGE|
CEG|ceg|g^f=f|d2z|
GBd|gdB|G"Pia"AG|FED|
DB,A,|G,A,B,|CEG|c2"For"z|
^f/g/a/g/f/g/|^d/e/=f/e/d/e/|B/c/=d/c/e/c/|G2g|
(c'/b/) (c'/b/) (c'/b/)|c'/b/a/g/f/e/|g/^f/a/g/f/g/|d2z|
f/e/ f/e/ f/e/|(f/e/d/c/B/A/)|(g/f/e/d/c/B/)|(A/G/^F/G/A/B/)|
(c/d/e/c/f/e/)|(g/f/e/d/c/B/)|cc'c'|c'2"Da Capo":|

